dist/img/svg/icon-link.svg

<svg width="13" height="13" viewBox="0 0 13 13" fill="none" xmlns="http://www.w3.org/2000/svg">
<path d="M9.04863 4.64793C9.52663 4.6487 10.0046 4.64334 10.4819 4.651C10.6578 4.65406 10.7855 4.59127 10.914 4.47258C11.4187 4.00624 11.6803 3.46103 11.5403 2.75808C11.2956 1.52524 9.7706 0.992283 8.81767 1.81163C8.75954 1.8614 8.70448 1.915 8.65094 1.9686C6.42768 4.19385 4.20289 6.41833 1.98268 8.64664C1.22707 9.40549 1.24925 10.4722 2.02169 11.1575C2.67712 11.7387 3.64306 11.7249 4.28243 11.1001C5.1237 10.2777 5.94815 9.43918 6.77948 8.60758C7.3745 8.0126 7.97257 7.42069 8.56069 6.81881C8.71595 6.65954 8.82226 6.64729 8.97368 6.82724C9.15112 7.03858 9.35226 7.23231 9.55875 7.41609C9.74154 7.57919 9.71324 7.69405 9.54958 7.85563C8.59052 8.80361 7.64141 9.76079 6.68847 10.7141C6.22883 11.1744 5.77837 11.643 5.30725 12.0917C3.62853 13.6921 0.992274 13.1002 0.203004 10.9178C-0.242107 9.68881 0.0584581 8.5693 0.970095 7.64505C2.77654 5.81416 4.60211 4.00241 6.42003 2.18225C6.86591 1.73582 7.30413 1.28097 7.76148 0.846792C8.68153 -0.026154 10.0421 -0.242859 11.1977 0.283971C12.3189 0.794721 13.0439 1.96324 12.998 3.21293C12.9697 3.98786 12.6768 4.66019 12.156 5.23526C11.379 6.09365 11.3797 6.09442 10.2264 6.09212C9.58629 6.09059 8.94539 6.1082 8.30602 6.08829C8.01998 6.07911 7.82343 6.17712 7.62994 6.37621C6.95615 7.06844 6.26401 7.74153 5.58946 8.433C5.42885 8.59763 5.32561 8.59686 5.17571 8.42993C4.97151 8.20251 4.75048 7.9904 4.52869 7.77982C4.41321 7.67032 4.40862 7.58532 4.5241 7.47046C5.4258 6.57377 6.32367 5.67326 7.22154 4.77198C7.32631 4.66708 7.44868 4.6464 7.58787 4.64717C8.07428 4.6487 8.56146 4.64717 9.04863 4.64793Z" fill="white"/>
</svg>

<svg width="13" height="13" viewBox="0 0 13 13" fill="none" xmlns="http://www.w3.org/2000/svg"><path d="M9.049 4.648c.478 0 .956-.005 1.433.003a.582.582 0 00.432-.178c.505-.467.766-1.012.626-1.715-.244-1.233-1.77-1.766-2.722-.946-.058.05-.114.103-.167.157-2.223 2.225-4.448 4.45-6.668 6.678-.756.758-.734 1.825.039 2.51a1.64 1.64 0 002.26-.057c.842-.822 1.666-1.66 2.497-2.492.596-.595 1.194-1.187 1.782-1.79.155-.158.261-.17.413.01.177.21.378.404.585.588.183.163.154.278-.01.44-.958.948-1.908 1.905-2.86 2.858-.46.46-.91.929-1.382 1.378C3.63 13.692.992 13.1.203 10.918-.242 9.688.058 8.569.97 7.645c1.807-1.83 3.632-3.643 5.45-5.463.446-.446.884-.901 1.341-1.335a3.113 3.113 0 013.437-.563 3.111 3.111 0 011.8 2.929c-.028.775-.321 1.447-.842 2.022-.777.859-.776.86-1.93.857-.64-.001-1.28.016-1.92-.004-.286-.009-.483.09-.676.288-.674.692-1.366 1.366-2.04 2.057-.161.165-.264.164-.414-.003-.204-.227-.426-.44-.647-.65-.116-.11-.12-.195-.005-.31.902-.896 1.8-1.797 2.698-2.698.104-.105.227-.126.366-.125.486.002.973 0 1.46 0z" fill="#fff"/></svg>
